X:39
T:Rose Tree
Z: id:dc-polka-49
M:2/4
L:1/8
K:A Major
c/B/|AF EC|E2 EF|AA BA/B/|cB Bc/B/|!
AF EC|E2 EF|AA BA/B/|cA A:|!
A/B/|cB cd|e2 dc|Bf fe|fB Bc/B/|!
AF EC|E2 EF|AA BA/B/|cA A:|!

